assets/img/SimonComponent_ColourLegend-DE.svg

<svg viewBox="0 0 806 464" xmlns="http://www.w3.org/2000/svg" fill-rule="evenodd" clip-rule="evenodd" stroke-linejoin="round" stroke-miterlimit="10"><g transform="scale(1.33333)"><clipPath id="a"><path d="M0 0h604v348H0z"/></clipPath><g clip-path="url(#a)"><path d="M0 0h604v348H0V0z" fill="none"/><text x="536.469" y="145.985" font-family="'SpecialElite-Regular','Special Elite'" font-size="30" transform="translate(-50.836 38.247)">Gelb</text><path d="M114.36 0h357.291v347.969H114.36V0z" fill="#fff" fill-rule="nonzero"/><path d="M125.438 5.776h336.914v337.669H125.438V5.776z" fill="none"/><path d="M125.438 5.776h336.914v337.669H125.438V5.776z" fill="none" stroke="#000" stroke-width="2"/><path d="M403.094 40.554c0-8.376 6.966-15.165 15.559-15.165 4.127 0 8.084 1.597 11.002 4.441 2.918 2.844 4.557 6.702 4.557 10.724 0 8.376-6.966 15.165-15.559 15.165s-15.559-6.789-15.559-15.165z" fill="#fff" fill-rule="nonzero"/><path d="M403.094 40.554c0-8.376 6.966-15.165 15.559-15.165 4.127 0 8.084 1.597 11.002 4.441 2.918 2.844 4.557 6.702 4.557 10.724 0 8.376-6.966 15.165-15.559 15.165s-15.559-6.789-15.559-15.165z" fill="none" stroke="#000" stroke-width="2"/><path d="M241.622 122.045l52.567-52.567 52.567 52.567-52.567 52.567-52.567-52.567z" fill="none"/><path d="M241.622 122.045l52.567-52.567 52.567 52.567-52.567 52.567-52.567-52.567z" fill="none" stroke="#000" stroke-width="2"/><path d="M188.761 175.066l52.567-52.567 52.567 52.567-52.567 52.567-52.567-52.567z" fill="none"/><path d="M188.761 175.066l52.567-52.567 52.567 52.567-52.567 52.567-52.567-52.567z" fill="none" stroke="#000" stroke-width="2"/><path d="M241.622 227.178l52.567-52.566 52.567 52.566-52.567 52.567-52.567-52.567z" fill="none"/><path d="M241.622 227.178l52.567-52.566 52.567 52.566-52.567 52.567-52.567-52.567z" fill="none" stroke="#000" stroke-width="2"/><path d="M293.895 175.066l52.567-52.567 52.567 52.567-52.567 52.567-52.567-52.567z" fill="none"/><path d="M293.895 175.066l52.567-52.567 52.567 52.567-52.567 52.567-52.567-52.567z" fill="none" stroke="#000" stroke-width="2"/><path d="M478.651 60.892h95.874v61.607h-95.874V60.892z" fill="none"/><text x="509.231" y="78.128" font-family="'SpecialElite-Regular','Special Elite'" font-size="30" transform="translate(-23.1 22.457)">Blau</text><path d="M2.226 142.373H107.36v65.386H2.226v-65.386zM-5 223.633h113.354v65.385H-5v-65.385zm113.354 32.692H263" fill="none"/><path d="M108.354 256.325H251" fill="none" stroke="#000" stroke-width="2"/><path d="M251 259.629l9.076-3.304-9.076-3.303v6.607z" stroke="#000" stroke-width="2" stroke-linejoin="miter"/><path d="M478.651 91.696H332.226" fill="none"/><path d="M478.651 91.696H344.226" fill="none" stroke="#000" stroke-width="2"/><path d="M344.226 88.392l-9.076 3.304 9.076 3.303v-6.607z" stroke="#000" stroke-width="2" stroke-linejoin="miter"/><path d="M478.651 174.612h-68.473" fill="none"/><path d="M478.651 174.612h-56.473" fill="none" stroke="#000" stroke-width="2"/><path d="M422.178 171.308l-9.076 3.304 9.076 3.303v-6.607z" stroke="#000" stroke-width="2" stroke-linejoin="miter"/><path d="M107.36 175.066h72.189" fill="none"/><path d="M107.36 175.066h60.189" fill="none" stroke="#000" stroke-width="2"/><path d="M167.549 178.369l9.076-3.303-9.076-3.304v6.607z" stroke="#000" stroke-width="2" stroke-linejoin="miter"/><text x="38.098" y="50.724" font-family="'SpecialElite-Regular','Special Elite'" font-size="30" transform="translate(9.515 130.972)">Rot</text><text x="26.54" y="232.131" font-family="'SpecialElite-Regular','Special Elite'" font-size="30" transform="translate(-1.031 30.534)">Grün</text></g></g></svg>

<?xml version="1.0" encoding="UTF-8" standalone="no"?>
<!DOCTYPE svg PUBLIC "-//W3C//DTD SVG 1.1//EN" "http://www.w3.org/Graphics/SVG/1.1/DTD/svg11.dtd">
<svg width="100%" height="100%" viewBox="0 0 806 464" version="1.1" xmlns="http://www.w3.org/2000/svg" xmlns:xlink="http://www.w3.org/1999/xlink" xml:space="preserve" style="fill-rule:evenodd;clip-rule:evenodd;stroke-linejoin:round;stroke-miterlimit:10;">
    <g transform="matrix(1.33333,0,0,1.33333,0,0)">
        <g>
            <clipPath id="_clip1">
                <rect x="0" y="0" width="604" height="348"/>
            </clipPath>
            <g clip-path="url(#_clip1)">
                <path d="M0,0L604,0L604,348L0,348L0,0Z" style="fill-opacity:0;fill-rule:nonzero;"/>
                <g transform="matrix(1,0,0,1,-50.8356,38.2468)">
                    <text x="536.469px" y="145.985px" style="font-family:'SpecialElite-Regular', 'Special Elite';font-size:30px;">Gelb</text>
                </g>
                <path d="M114.36,0L471.651,0L471.651,347.969L114.36,347.969L114.36,0Z" style="fill:white;fill-rule:nonzero;"/>
                <path d="M125.438,5.776L462.352,5.776L462.352,343.445L125.438,343.445L125.438,5.776Z" style="fill-opacity:0;fill-rule:nonzero;"/>
                <path d="M125.438,5.776L462.352,5.776L462.352,343.445L125.438,343.445L125.438,5.776Z" style="fill:none;stroke:black;stroke-width:2px;"/>
                <path d="M403.094,40.554C403.094,32.178 410.06,25.389 418.653,25.389C422.78,25.389 426.737,26.986 429.655,29.83C432.573,32.674 434.212,36.532 434.212,40.554C434.212,48.93 427.246,55.719 418.653,55.719C410.06,55.719 403.094,48.93 403.094,40.554L403.094,40.554Z" style="fill:white;fill-rule:nonzero;"/>
                <path d="M403.094,40.554C403.094,32.178 410.06,25.389 418.653,25.389C422.78,25.389 426.737,26.986 429.655,29.83C432.573,32.674 434.212,36.532 434.212,40.554C434.212,48.93 427.246,55.719 418.653,55.719C410.06,55.719 403.094,48.93 403.094,40.554L403.094,40.554Z" style="fill:none;stroke:black;stroke-width:2px;"/>
                <path d="M241.622,122.045L294.189,69.478L346.756,122.045L294.189,174.612L241.622,122.045Z" style="fill-opacity:0;fill-rule:nonzero;"/>
                <path d="M241.622,122.045L294.189,69.478L346.756,122.045L294.189,174.612L241.622,122.045Z" style="fill:none;stroke:black;stroke-width:2px;"/>
                <path d="M188.761,175.066L241.328,122.499L293.895,175.066L241.328,227.633L188.761,175.066Z" style="fill-opacity:0;fill-rule:nonzero;"/>
                <path d="M188.761,175.066L241.328,122.499L293.895,175.066L241.328,227.633L188.761,175.066Z" style="fill:none;stroke:black;stroke-width:2px;"/>
                <path d="M241.622,227.178L294.189,174.612L346.756,227.178L294.189,279.745L241.622,227.178Z" style="fill-opacity:0;fill-rule:nonzero;"/>
                <path d="M241.622,227.178L294.189,174.612L346.756,227.178L294.189,279.745L241.622,227.178Z" style="fill:none;stroke:black;stroke-width:2px;"/>
                <path d="M293.895,175.066L346.462,122.499L399.029,175.066L346.462,227.633L293.895,175.066Z" style="fill-opacity:0;fill-rule:nonzero;"/>
                <path d="M293.895,175.066L346.462,122.499L399.029,175.066L346.462,227.633L293.895,175.066Z" style="fill:none;stroke:black;stroke-width:2px;"/>
                <path d="M478.651,60.892L574.525,60.892L574.525,122.499L478.651,122.499L478.651,60.892Z" style="fill-opacity:0;fill-rule:nonzero;"/>
                <g transform="matrix(1,0,0,1,-23.0997,22.4568)">
                    <text x="509.231px" y="78.128px" style="font-family:'SpecialElite-Regular', 'Special Elite';font-size:30px;">Blau</text>
                </g>
                <path d="M2.226,142.373L107.36,142.373L107.36,207.759L2.226,207.759L2.226,142.373Z" style="fill-opacity:0;fill-rule:nonzero;"/>
                <path d="M-5,223.633L108.354,223.633L108.354,289.018L-5,289.018L-5,223.633Z" style="fill-opacity:0;fill-rule:nonzero;"/>
                <path d="M108.354,256.325L263,256.325" style="fill-opacity:0;fill-rule:nonzero;"/>
                <path d="M108.354,256.325L251,256.325" style="fill:none;stroke:black;stroke-width:2px;"/>
                <path d="M251,259.629L260.076,256.325L251,253.022L251,259.629Z" style="stroke:black;stroke-width:2px;stroke-linejoin:miter;"/>
                <path d="M478.651,91.696L332.226,91.696" style="fill-opacity:0;fill-rule:nonzero;"/>
                <path d="M478.651,91.696L344.226,91.696" style="fill:none;stroke:black;stroke-width:2px;"/>
                <path d="M344.226,88.392L335.15,91.696L344.226,94.999L344.226,88.392Z" style="stroke:black;stroke-width:2px;stroke-linejoin:miter;"/>
                <path d="M478.651,174.612L410.178,174.612" style="fill-opacity:0;fill-rule:nonzero;"/>
                <path d="M478.651,174.612L422.178,174.612" style="fill:none;stroke:black;stroke-width:2px;"/>
                <path d="M422.178,171.308L413.102,174.612L422.178,177.915L422.178,171.308Z" style="stroke:black;stroke-width:2px;stroke-linejoin:miter;"/>
                <path d="M107.36,175.066L179.549,175.066" style="fill-opacity:0;fill-rule:nonzero;"/>
                <path d="M107.36,175.066L167.549,175.066" style="fill:none;stroke:black;stroke-width:2px;"/>
                <path d="M167.549,178.369L176.625,175.066L167.549,171.762L167.549,178.369Z" style="stroke:black;stroke-width:2px;stroke-linejoin:miter;"/>
                <g transform="matrix(1,0,0,1,9.51477,130.972)">
                    <text x="38.098px" y="50.724px" style="font-family:'SpecialElite-Regular', 'Special Elite';font-size:30px;">Rot</text>
                </g>
                <g transform="matrix(1,0,0,1,-1.03141,30.5344)">
                    <text x="26.54px" y="232.131px" style="font-family:'SpecialElite-Regular', 'Special Elite';font-size:30px;">Grün</text>
                </g>
            </g>
        </g>
    </g>
</svg>
